X: 29648
T: Northern Lights Of Old Aberdeen, The
R: waltz
M: 3/4
K: Cmajor
G2|G2 E2 F2|G4 G2|c2 B2 A2|G6|F2 G2 F2|E4 D2|G6|G4 G2|
G4 E2|G4 G2|c2 B2 A2|G6|F2 G2 F2|E4 D2|C6|C4 G2|
A2 F2 A2|c2 B2 A2|G6|G4 G2|A2 F2 A2|c2 B2 A2|B6|B4 G2|
G2 G2 E2|G4 G2|c2 B2 A2|G6|F2 G2 F2|E2 E2 D2|C6|C4 G2|
C4 C2|E4 E2|D2 C2 D2|C4 G2|A4 A2|F2 G2 A2|G6|G4 G2|
A4 A2|F4 A2|G4 E2|D4 C2|D4 D2|E4 C2|G6|G4 G2|
C4 C2|E4 E2|D2 C2 D2|C4 G2|A4 A2|F2 G2 A2|G6|G4 G2|
A4 F2|c4 A2|G4 E2|c4 c2|c4 A2|B4 c2|c6|c4||

